X:1
T:Jesus, Hear, 87.87 D
T:Jesus, Hear, 87.87 D
T:Armas Toivo Valdemar Maasalo (1885–1960)
T:Public Domain Courtesy of the Cyber Hymnal™
C:Armas Toivo Valdemar Maasalo (1885–1960)
Z:Public Domain
Z:Courtesy of the Cyber Hymnal™
%%score ( 1 2 ) ( 3 4 )
L:1/8
Q:1/4=103
M:none
K:Ab
V:1 treble 
V:2 treble 
V:3 bass 
V:4 bass 
V:1
 F4 C2 | FGAF | [=EG]2 [FA]2 | [FB]3 [DB] [CA][B,G] | [CF][C=E] [CF]4 | [DF]4 C2 | %6
 [DF][B,G][A,A][A,F] | [DG]2 [CA]2 | [DB]3 [CB] [CA][B,G] | [CF][C=E] [CF]4 | %10
 [Ec]2 [Ec]2 [E=B][Ec] | [Ee][EA] [EB]2 [EB]2 | [Dd]2 [Fd]2 [Fc][FB] | [FA]F [=EG]4 | %14
 [CF]4 [C=E]2 | [CF][CG][CA][CF] | [CG]2 [CA]2 | [B,B]3 [DB] [CA][B,G] | [CF][C=E] [CF]4 |] %19
V:2
 F4 C2 | FGAF | x4 | x6 | x6 | x4 C2 | x4 | x4 | x6 | x6 | x6 | x6 | x6 | x F x4 | x6 | x4 | x4 | %17
 x6 | x6 |] %19
V:3
 F,4 C,2 | F,G,A,F, | [C,C]2 [F,C]2 | [D,B,]3 [B,,B,] [C,F,][D,F,] | [C,A,][C,G,] [F,,A,]4 | %5
 [D,A,]4 [A,,A,]2 | [D,A,][D,E,][C,E,][D,F,] | [B,,E,]2 [A,,E,]2 | [E,G,]3 [=E,G,] F,[D,F,] | %9
 [C,A,][C,G,] [F,,A,]4 | [A,,A,]2 [A,C]2 [G,E][A,C] | [C,A,][C,A,] [E,A,]2 [E,G,]2 | %12
 [B,,F,]2 [D,B,]2 [F,A,][D,B,] | [C,C][A,,C] [C,C]4 | [F,A,]4 [C,G,]2 | %15
 [A,,F,][G,,=E,][F,,F,][A,,F,] | [C,=E,]2 F,2 | [D,F,]3 [B,,F,] [C,F,][D,F,] | %18
 [C,A,][C,G,] [F,,A,]4 |] %19
V:4
 F,4 C,2 | F,G,A,F, | x4 | x6 | x6 | x6 | x4 | x4 | x4 F, x | x6 | x6 | x6 | x6 | x6 | x6 | x4 | %16
 x2 F,2 | x6 | x6 |] %19

